d1
  $ whenmod 16 15 (>| note (scale "major" "8 7 5 ~ 8 9 7 5"))
  $ whenmod 4 3 (>| note (scale "major" "8 7 5 4"))
  $ whenmod 2 1 (>| note (scale "major" "5 6 5 _"))
  $ note (scale "major" "5 4 5 _")
  # sound "superfm"
  # gain 0.7
  # delay 0.5

