d5
  $ whenmod 2 1 (>| note   (scale "major" "9 9 8 7 6 ~ 8 8"))
  $ note                   (scale "major" "8 8 ~ 7 4 _ 5 ~")
  # sound "notes"
  # gain 0.7
  # delay 0.3
  # size 0.5
  # room 0.5
